BMW Web App/client/src/assets/addIconColored.svg

<svg version="1.1" xmlns="http://www.w3.org/2000/svg" xmlns:xlink="http://www.w3.org/1999/xlink" width="16" height="16" viewBox="0,0,256,256"><defs><clipPath id="clip-1"><rect x="0" y="0" width="16" height="16" id="clip0_4556_3228" stroke="none" stroke-width="1" stroke-linecap="butt" stroke-linejoin="miter"></rect></clipPath></defs><g fill="none" fill-rule="nonzero" stroke="none" stroke-width="none" stroke-linecap="none" stroke-linejoin="none" stroke-miterlimit="10" stroke-dasharray="" stroke-dashoffset="0" font-family="none" font-weight="none" font-size="none" text-anchor="none" style="mix-blend-mode: normal"><g transform="scale(16,16)"><g clip-path="url(#clip-1)"><path d="M13.334,1.33398h-10.66668c-0.73638,0 -1.33334,0.59696 -1.33334,1.33334v10.66668c0,0.7364 0.59696,1.3333 1.33334,1.3333h10.66668c0.7364,0 1.3333,-0.5969 1.3333,-1.3333v-10.66668c0,-0.73638 -0.5969,-1.33334 -1.3333,-1.33334z" stroke="#354f52" stroke-width="1.5" stroke-linecap="round" stroke-linejoin="round"></path><path d="M10.3346,8h-4.66663" stroke="#354f52" stroke-width="1.5" stroke-linecap="round" stroke-linejoin="round"></path><path d="M8,10.3346v-4.66663" stroke="#354f52" stroke-width="1.5" stroke-linecap="round" stroke-linejoin="round"></path></g></g></g></svg>

<svg width="16" height="16" viewBox="0 0 16 16" fill="none" xmlns="http://www.w3.org/2000/svg">
<g clip-path="url(#clip0_4556_3228)">
<path d="M13.334 1.33398H2.66732C1.93094 1.33398 1.33398 1.93094 1.33398 2.66732V13.334C1.33398 14.0704 1.93094 14.6673 2.66732 14.6673H13.334C14.0704 14.6673 14.6673 14.0704 14.6673 13.334V2.66732C14.6673 1.93094 14.0704 1.33398 13.334 1.33398Z" stroke="#2563EB" stroke-width="1.5" stroke-linecap="round" stroke-linejoin="round"/>
<path d="M10.3346 8H5.66797" stroke="#2563EB" stroke-width="1.5" stroke-linecap="round" stroke-linejoin="round"/>
<path d="M8 10.3346V5.66797" stroke="#2563EB" stroke-width="1.5" stroke-linecap="round" stroke-linejoin="round"/>
</g>
<defs>
<clipPath id="clip0_4556_3228">
<rect width="16" height="16" fill="white"/>
</clipPath>
</defs>
</svg>
